src/lib/packages/icons/src/assets/line/bookmarks-user.svg

<svg width="24" height="24" viewBox="0 0 24 24" fill="none" xmlns="http://www.w3.org/2000/svg">
<path d="M17.4299 1.25H10.571C8.46105 1.25 7.25098 2.45995 7.25098 4.56995V5.25H6.57202C4.43002 5.25 3.25098 6.43005 3.25098 8.57104V22C3.25098 22.268 3.394 22.515 3.625 22.649C3.741 22.716 3.87098 22.75 4.00098 22.75C4.12898 22.75 4.25805 22.717 4.37305 22.651L10.001 19.4351L15.6289 22.651C15.8619 22.784 16.148 22.7829 16.377 22.6479C16.608 22.5139 16.751 22.267 16.751 22V17.004L19.6279 18.651C19.7439 18.717 19.872 18.75 20.001 18.75C20.131 18.75 20.261 18.716 20.377 18.649C20.608 18.515 20.751 18.268 20.751 18V4.56995C20.75 2.45995 19.5399 1.25 17.4299 1.25ZM15.25 20.707L10.3721 17.92C10.1421 17.788 9.85793 17.788 9.62793 17.92L4.75 20.708V8.57202C4.75 7.27902 5.27704 6.75098 6.57104 6.75098H13.428C14.722 6.75098 15.249 7.27902 15.249 8.57202V20.707H15.25ZM19.25 16.707L16.75 15.275V8.57104C16.75 6.42904 15.57 5.25 13.429 5.25H8.75V4.56995C8.75 3.27795 9.27707 2.75 10.5701 2.75H17.429C18.722 2.75 19.249 3.27695 19.249 4.56995V16.707H19.25ZM10 12.55C11.186 12.55 12.1499 11.586 12.1499 10.4C12.1499 9.21402 11.185 8.25 10 8.25C8.815 8.25 7.8501 9.21402 7.8501 10.4C7.8501 11.586 8.814 12.55 10 12.55ZM10 9.75C10.358 9.75 10.6499 10.042 10.6499 10.4C10.6499 10.758 10.358 11.05 10 11.05C9.642 11.05 9.3501 10.758 9.3501 10.4C9.3501 10.042 9.642 9.75 10 9.75ZM13.27 15.746V16C13.27 16.414 12.934 16.75 12.52 16.75C12.106 16.75 11.77 16.414 11.77 16V15.746C11.77 15.201 11.389 14.65 10.54 14.65H9.46191C8.61191 14.65 8.23193 15.2 8.23193 15.746V16C8.23193 16.414 7.89593 16.75 7.48193 16.75C7.06793 16.75 6.73193 16.414 6.73193 16V15.746C6.73193 14.266 7.90591 13.15 9.46191 13.15H10.54C12.096 13.15 13.27 14.266 13.27 15.746Z" fill="currentColor"/>
</svg>

<svg xmlns="http://www.w3.org/2000/svg" width="24" height="24" fill="none"><path fill="currentColor" d="M17.43 1.25h-6.86c-2.11 0-3.32 1.21-3.32 3.32v.68h-.679c-2.142 0-3.321 1.18-3.321 3.321V22a.75.75 0 0 0 1.122.651L10 19.435l5.628 3.216A.75.75 0 0 0 16.75 22v-4.996l2.877 1.647A.752.752 0 0 0 20.75 18V4.57c-.001-2.11-1.211-3.32-3.321-3.32Zm-2.18 19.457-4.878-2.787a.749.749 0 0 0-.744 0L4.75 20.708V8.572c0-1.293.527-1.821 1.821-1.821h6.857c1.294 0 1.821.528 1.821 1.821v12.135h.001Zm4-4-2.5-1.432V8.571c0-2.142-1.18-3.321-3.321-3.321H8.75v-.68c0-1.292.527-1.82 1.82-1.82h6.859c1.293 0 1.82.527 1.82 1.82v12.137h.001ZM10 12.55c1.186 0 2.15-.964 2.15-2.15S11.185 8.25 10 8.25s-2.15.964-2.15 2.15.964 2.15 2.15 2.15Zm0-2.8a.651.651 0 0 1 0 1.3.651.651 0 0 1 0-1.3Zm3.27 5.996V16a.75.75 0 0 1-1.5 0v-.254c0-.545-.381-1.096-1.23-1.096H9.462c-.85 0-1.23.55-1.23 1.096V16a.75.75 0 0 1-1.5 0v-.254c0-1.48 1.174-2.596 2.73-2.596h1.078c1.556 0 2.73 1.116 2.73 2.596Z"/></svg>
